src/img/logo.svg

<svg width="212" height="31" viewBox="0 0 212 31" fill="none" xmlns="http://www.w3.org/2000/svg">
<path d="M21.147 9.82031H16.4808C16.3956 9.21662 16.2216 8.6804 15.9588 8.21165C15.696 7.73579 15.3587 7.33097 14.9467 6.99716C14.5348 6.66335 14.0589 6.40767 13.5192 6.23011C12.9865 6.05256 12.4077 5.96378 11.7827 5.96378C10.6534 5.96378 9.66974 6.24432 8.83168 6.8054C7.99361 7.35937 7.34375 8.16903 6.8821 9.23438C6.42045 10.2926 6.18963 11.5781 6.18963 13.0909C6.18963 14.6463 6.42045 15.9531 6.8821 17.0114C7.35085 18.0696 8.00426 18.8686 8.84233 19.4084C9.6804 19.9482 10.6499 20.218 11.7507 20.218C12.3686 20.218 12.9403 20.1364 13.4659 19.973C13.9986 19.8097 14.4709 19.5717 14.8828 19.2592C15.2947 18.9396 15.6357 18.5526 15.9055 18.098C16.1825 17.6435 16.3743 17.125 16.4808 16.5426L21.147 16.5639C21.0263 17.5653 20.7244 18.5312 20.2415 19.4616C19.7656 20.3849 19.1229 21.2124 18.3132 21.9439C17.5107 22.6683 16.5518 23.2436 15.4368 23.6697C14.3288 24.0888 13.0753 24.2983 11.6761 24.2983C9.73011 24.2983 7.99006 23.858 6.45597 22.9773C4.92898 22.0966 3.72159 20.8217 2.83381 19.1527C1.95312 17.4837 1.51278 15.4631 1.51278 13.0909C1.51278 10.7116 1.96023 8.6875 2.85511 7.01847C3.75 5.34943 4.96449 4.07812 6.49858 3.20455C8.03267 2.32386 9.75852 1.88352 11.6761 1.88352C12.9403 1.88352 14.1122 2.06108 15.1918 2.41619C16.2784 2.77131 17.2408 3.28977 18.0788 3.97159C18.9169 4.64631 19.5987 5.47372 20.1243 6.45383C20.657 7.43395 20.9979 8.55611 21.147 9.82031ZM29.0359 24.3089C27.9918 24.3089 27.0614 24.1278 26.2447 23.7656C25.4279 23.3963 24.7816 22.853 24.3058 22.1357C23.837 21.4112 23.6026 20.5092 23.6026 19.4297C23.6026 18.5206 23.7695 17.7571 24.1033 17.1392C24.4371 16.5213 24.8917 16.0241 25.467 15.6477C26.0423 15.2713 26.6957 14.9872 27.4272 14.7955C28.1658 14.6037 28.94 14.4688 29.7496 14.3906C30.7013 14.2912 31.4684 14.1989 32.0508 14.1136C32.6332 14.0213 33.0558 13.8864 33.3185 13.7088C33.5813 13.5312 33.7127 13.2685 33.7127 12.9205V12.8565C33.7127 12.1818 33.4996 11.6598 33.0735 11.2905C32.6545 10.9212 32.0579 10.7365 31.2837 10.7365C30.467 10.7365 29.8171 10.9176 29.3342 11.2798C28.8512 11.6349 28.5316 12.0824 28.3754 12.6222L24.1779 12.2812C24.391 11.2869 24.81 10.4276 25.435 9.70312C26.06 8.97159 26.8661 8.41051 27.8533 8.01989C28.8477 7.62216 29.9982 7.4233 31.305 7.4233C32.2141 7.4233 33.0842 7.52983 33.9151 7.7429C34.7532 7.95597 35.4954 8.28622 36.1417 8.73366C36.7951 9.18111 37.31 9.75639 37.6864 10.4595C38.0629 11.1555 38.2511 11.9901 38.2511 12.9631V24H33.9471V21.7308H33.8192C33.5565 22.2422 33.2049 22.6932 32.7646 23.0838C32.3242 23.4673 31.7951 23.7692 31.1772 23.9893C30.5593 24.2024 29.8455 24.3089 29.0359 24.3089ZM30.3356 21.1768C31.0032 21.1768 31.5927 21.0455 32.104 20.7827C32.6154 20.5128 33.0167 20.1506 33.3079 19.696C33.5991 19.2415 33.7447 18.7266 33.7447 18.1513V16.4148C33.6026 16.5071 33.4073 16.5923 33.1587 16.6705C32.9173 16.7415 32.6438 16.8089 32.3384 16.8729C32.033 16.9297 31.7276 16.983 31.4222 17.0327C31.1168 17.0753 30.8398 17.1143 30.5913 17.1499C30.0586 17.228 29.5934 17.3523 29.1957 17.5227C28.7979 17.6932 28.489 17.924 28.2688 18.2152C28.0487 18.4993 27.9386 18.8544 27.9386 19.2805C27.9386 19.8984 28.1623 20.3707 28.6097 20.6974C29.0643 21.017 29.6396 21.1768 30.3356 21.1768ZM46.3104 14.5398V24H41.772V7.63636H46.0973V10.5234H46.2891C46.6513 9.57173 47.2585 8.81889 48.1108 8.26491C48.9631 7.70384 49.9964 7.4233 51.2109 7.4233C52.3473 7.4233 53.3381 7.67187 54.1832 8.16903C55.0284 8.66619 55.6854 9.37642 56.1541 10.2997C56.6229 11.2159 56.8572 12.3097 56.8572 13.581V24H52.3189V14.3906C52.326 13.3892 52.0703 12.608 51.5518 12.0469C51.0334 11.4787 50.3196 11.1946 49.4105 11.1946C48.7997 11.1946 48.2599 11.326 47.7912 11.5888C47.3295 11.8516 46.9673 12.2351 46.7045 12.7393C46.4489 13.2365 46.3175 13.8366 46.3104 14.5398ZM67.8915 24.3196C66.2083 24.3196 64.7594 23.9787 63.5449 23.2969C62.3375 22.608 61.4071 21.6349 60.7537 20.3778C60.1003 19.1136 59.7736 17.6186 59.7736 15.8928C59.7736 14.2095 60.1003 12.7322 60.7537 11.4609C61.4071 10.1896 62.3269 9.19886 63.513 8.48864C64.7061 7.77841 66.1053 7.4233 67.7104 7.4233C68.79 7.4233 69.7949 7.5973 70.7253 7.94531C71.6628 8.28622 72.4796 8.80114 73.1756 9.49006C73.8787 10.179 74.4256 11.0455 74.8162 12.0895C75.2069 13.1264 75.4022 14.3409 75.4022 15.733V16.9794H61.5847V14.1669H71.1301C71.1301 13.5135 70.9881 12.9347 70.704 12.4304C70.4199 11.9261 70.0257 11.532 69.5215 11.2479C69.0243 10.9567 68.4455 10.8111 67.785 10.8111C67.0961 10.8111 66.4853 10.9709 65.9526 11.2905C65.427 11.603 65.0151 12.0256 64.7168 12.5582C64.4185 13.0838 64.2658 13.6697 64.2587 14.3161V16.9901C64.2587 17.7997 64.4078 18.4993 64.7061 19.0888C65.0115 19.6783 65.4412 20.1328 65.9952 20.4524C66.5492 20.772 67.2061 20.9318 67.9661 20.9318C68.4703 20.9318 68.932 20.8608 69.351 20.7188C69.7701 20.5767 70.1287 20.3636 70.427 20.0795C70.7253 19.7955 70.9526 19.4474 71.1088 19.0355L75.3063 19.3125C75.0932 20.321 74.6564 21.2017 73.9959 21.9545C73.3425 22.7003 72.4973 23.2827 71.4604 23.7017C70.4306 24.1136 69.2409 24.3196 67.8915 24.3196ZM89.177 30.1364V21.3793H89.0385C88.8255 21.8338 88.5236 22.2848 88.133 22.7322C87.7495 23.1726 87.2488 23.5384 86.6309 23.8295C86.0201 24.1207 85.2743 24.2663 84.3936 24.2663C83.1507 24.2663 82.025 23.9467 81.0165 23.3075C80.0151 22.6612 79.2196 21.7131 78.6301 20.4631C78.0478 19.206 77.7566 17.6648 77.7566 15.8395C77.7566 13.9645 78.0584 12.4055 78.6621 11.1626C79.2658 9.91264 80.0684 8.97869 81.0698 8.3608C82.0783 7.7358 83.1827 7.4233 84.383 7.4233C85.2992 7.4233 86.0627 7.57955 86.6735 7.89205C87.2914 8.19744 87.7885 8.58097 88.165 9.04261C88.5485 9.49716 88.8397 9.9446 89.0385 10.3849H89.2303V7.63636H93.7047V30.1364H89.177ZM85.8319 20.6548C86.5634 20.6548 87.1813 20.456 87.6855 20.0582C88.1969 19.6534 88.5875 19.0888 88.8574 18.3643C89.1344 17.6399 89.2729 16.7912 89.2729 15.8182C89.2729 14.8452 89.138 14 88.8681 13.2827C88.5982 12.5653 88.2076 12.0114 87.6962 11.6207C87.1848 11.2301 86.5634 11.0348 85.8319 11.0348C85.0861 11.0348 84.4576 11.2372 83.9462 11.642C83.4348 12.0469 83.0478 12.608 82.785 13.3253C82.5222 14.0426 82.3908 14.8736 82.3908 15.8182C82.3908 16.7699 82.5222 17.6115 82.785 18.343C83.0549 19.0675 83.4419 19.6357 83.9462 20.0476C84.4576 20.4524 85.0861 20.6548 85.8319 20.6548ZM107.842 17.0327V7.63636H112.38V24H108.023V21.0277H107.852C107.483 21.9865 106.869 22.7571 106.009 23.3395C105.157 23.9219 104.117 24.2131 102.888 24.2131C101.794 24.2131 100.832 23.9645 100.001 23.4673C99.1699 22.9702 98.5201 22.2635 98.0513 21.3473C97.5897 20.4311 97.3553 19.3338 97.3482 18.0554V7.63636H101.887V17.2457C101.894 18.2116 102.153 18.9751 102.664 19.5362C103.176 20.0973 103.861 20.3778 104.72 20.3778C105.267 20.3778 105.779 20.2536 106.254 20.005C106.73 19.7493 107.114 19.3729 107.405 18.8757C107.703 18.3786 107.849 17.7642 107.842 17.0327ZM123.468 24.3196C121.784 24.3196 120.336 23.9787 119.121 23.2969C117.914 22.608 116.983 21.6349 116.33 20.3778C115.676 19.1136 115.35 17.6186 115.35 15.8928C115.35 14.2095 115.676 12.7322 116.33 11.4609C116.983 10.1896 117.903 9.19886 119.089 8.48864C120.282 7.77841 121.681 7.4233 123.287 7.4233C124.366 7.4233 125.371 7.5973 126.301 7.94531C127.239 8.28622 128.056 8.80114 128.752 9.49006C129.455 10.179 130.002 11.0455 130.392 12.0895C130.783 13.1264 130.978 14.3409 130.978 15.733V16.9794H117.161V14.1669H126.706C126.706 13.5135 126.564 12.9347 126.28 12.4304C125.996 11.9261 125.602 11.532 125.098 11.2479C124.6 10.9567 124.022 10.8111 123.361 10.8111C122.672 10.8111 122.061 10.9709 121.529 11.2905C121.003 11.603 120.591 12.0256 120.293 12.5582C119.995 13.0838 119.842 13.6697 119.835 14.3161V16.9901C119.835 17.7997 119.984 18.4993 120.282 19.0888C120.588 19.6783 121.017 20.1328 121.571 20.4524C122.125 20.772 122.782 20.9318 123.542 20.9318C124.047 20.9318 124.508 20.8608 124.927 20.7188C125.346 20.5767 125.705 20.3636 126.003 20.0795C126.301 19.7955 126.529 19.4474 126.685 19.0355L130.882 19.3125C130.669 20.321 130.233 21.2017 129.572 21.9545C128.919 22.7003 128.074 23.2827 127.037 23.7017C126.007 24.1136 124.817 24.3196 123.468 24.3196ZM133.94 24V7.63636H138.478V24H133.94ZM136.22 5.52699C135.545 5.52699 134.966 5.30327 134.483 4.85582C134.007 4.40128 133.77 3.85795 133.77 3.22585C133.77 2.60085 134.007 2.06463 134.483 1.61719C134.966 1.16264 135.545 0.935368 136.22 0.935368C136.895 0.935368 137.47 1.16264 137.946 1.61719C138.429 2.06463 138.67 2.60085 138.67 3.22585C138.67 3.85795 138.429 4.40128 137.946 4.85582C137.47 5.30327 136.895 5.52699 136.22 5.52699ZM142.114 24V7.63636H146.514V10.4915H146.684C146.982 9.47585 147.483 8.70881 148.186 8.19034C148.889 7.66477 149.699 7.40199 150.615 7.40199C150.843 7.40199 151.088 7.41619 151.35 7.4446C151.613 7.47301 151.844 7.51207 152.043 7.56179V11.5888C151.83 11.5249 151.535 11.468 151.159 11.4183C150.782 11.3686 150.438 11.3438 150.125 11.3438C149.458 11.3438 148.861 11.4893 148.335 11.7805C147.817 12.0646 147.405 12.4624 147.1 12.9737C146.801 13.4851 146.652 14.0746 146.652 14.7422V24H142.114ZM161.021 24.3196C159.366 24.3196 157.935 23.968 156.728 23.2649C155.527 22.5547 154.6 21.5675 153.947 20.3033C153.294 19.032 152.967 17.5582 152.967 15.8821C152.967 14.1918 153.294 12.7145 153.947 11.4503C154.6 10.179 155.527 9.19176 156.728 8.48864C157.935 7.77841 159.366 7.4233 161.021 7.4233C162.676 7.4233 164.103 7.77841 165.304 8.48864C166.511 9.19176 167.441 10.179 168.095 11.4503C168.748 12.7145 169.075 14.1918 169.075 15.8821C169.075 17.5582 168.748 19.032 168.095 20.3033C167.441 21.5675 166.511 22.5547 165.304 23.2649C164.103 23.968 162.676 24.3196 161.021 24.3196ZM161.042 20.804C161.795 20.804 162.424 20.5909 162.928 20.1648C163.432 19.7315 163.812 19.142 164.068 18.3963C164.331 17.6506 164.462 16.8018 164.462 15.8501C164.462 14.8984 164.331 14.0497 164.068 13.304C163.812 12.5582 163.432 11.9687 162.928 11.5355C162.424 11.1023 161.795 10.8857 161.042 10.8857C160.282 10.8857 159.643 11.1023 159.125 11.5355C158.613 11.9687 158.226 12.5582 157.963 13.304C157.708 14.0497 157.58 14.8984 157.58 15.8501C157.58 16.8018 157.708 17.6506 157.963 18.3963C158.226 19.142 158.613 19.7315 159.125 20.1648C159.643 20.5909 160.282 20.804 161.042 20.804Z" fill="#292929"/>
</svg>

<svg id="Camada_1" data-name="Camada 1" xmlns="http://www.w3.org/2000/svg" viewBox="0 0 167.56 29.2"><defs><style>.cls-1{fill:#292929;}</style></defs><path class="cls-1" d="M21.15,9.82H16.48A4.55,4.55,0,0,0,16,8.21,4.08,4.08,0,0,0,15,7a4.48,4.48,0,0,0-1.43-.77A5.38,5.38,0,0,0,11.78,6a5.12,5.12,0,0,0-2.95.85A5.34,5.34,0,0,0,6.88,9.23a9.69,9.69,0,0,0-.69,3.86A9.83,9.83,0,0,0,6.88,17a5.31,5.31,0,0,0,2,2.4,5.26,5.26,0,0,0,2.91.81A5.59,5.59,0,0,0,13.47,20a4.45,4.45,0,0,0,1.41-.71,4.24,4.24,0,0,0,1-1.16,4.75,4.75,0,0,0,.57-1.56l4.67,0a8.45,8.45,0,0,1-.91,2.9,8.62,8.62,0,0,1-1.93,2.48,9.05,9.05,0,0,1-2.87,1.73,10.55,10.55,0,0,1-3.76.63A10.28,10.28,0,0,1,6.46,23a9.39,9.39,0,0,1-3.63-3.83,12.85,12.85,0,0,1-1.32-6.06A12.63,12.63,0,0,1,2.86,7,9.33,9.33,0,0,1,6.5,3.2a10.21,10.21,0,0,1,5.18-1.32,11,11,0,0,1,3.51.54A8.84,8.84,0,0,1,18.08,4a7.93,7.93,0,0,1,2,2.48A9.18,9.18,0,0,1,21.15,9.82ZM29,24.31a6.89,6.89,0,0,1-2.8-.54,4.53,4.53,0,0,1-1.93-1.63,4.9,4.9,0,0,1-.71-2.71,4.82,4.82,0,0,1,.5-2.29,4,4,0,0,1,1.37-1.49,6.43,6.43,0,0,1,2-.85,14.21,14.21,0,0,1,2.32-.41c.95-.1,1.72-.19,2.3-.28a3.2,3.2,0,0,0,1.27-.4.9.9,0,0,0,.39-.79v-.06a2,2,0,0,0-.64-1.57,2.61,2.61,0,0,0-1.79-.55,3.22,3.22,0,0,0-2,.54,2.44,2.44,0,0,0-.95,1.34l-4.2-.34A5.77,5.77,0,0,1,25.43,9.7,6.13,6.13,0,0,1,27.85,8a9.25,9.25,0,0,1,3.46-.6,10.72,10.72,0,0,1,2.61.32,7.12,7.12,0,0,1,2.22,1,4.86,4.86,0,0,1,1.55,1.73,5.27,5.27,0,0,1,.56,2.5V24H34V21.73h-.13a4.59,4.59,0,0,1-1.06,1.35,4.71,4.71,0,0,1-1.58.91A6.64,6.64,0,0,1,29,24.31Zm1.3-3.13a3.71,3.71,0,0,0,1.76-.4,3.1,3.1,0,0,0,1.21-1.08,2.83,2.83,0,0,0,.43-1.55V16.41a2.12,2.12,0,0,1-.58.26c-.24.07-.52.14-.82.2l-.92.16-.83.12a5.61,5.61,0,0,0-1.39.37,2.17,2.17,0,0,0-.93.7,1.85,1.85,0,0,0,.34,2.48A2.92,2.92,0,0,0,30.34,21.18Zm16-6.64V24H41.77V7.64H46.1v2.88h.19a4.6,4.6,0,0,1,1.82-2.26,5.53,5.53,0,0,1,3.1-.84,5.7,5.7,0,0,1,3,.75,5,5,0,0,1,2,2.13,7.12,7.12,0,0,1,.71,3.28V24H52.32V14.39a3.26,3.26,0,0,0-.77-2.34,2.75,2.75,0,0,0-2.14-.86,3.3,3.3,0,0,0-1.62.4,2.82,2.82,0,0,0-1.09,1.15A4.12,4.12,0,0,0,46.31,14.54Zm21.58,9.78a8.8,8.8,0,0,1-4.35-1,7.14,7.14,0,0,1-2.79-2.92,9.72,9.72,0,0,1-1-4.49,9.61,9.61,0,0,1,1-4.43,7.33,7.33,0,0,1,2.76-3,8.1,8.1,0,0,1,4.2-1.07,8.56,8.56,0,0,1,3,.53,6.74,6.74,0,0,1,2.45,1.54,7.09,7.09,0,0,1,1.64,2.6,10.34,10.34,0,0,1,.58,3.64V17H61.58V14.17h9.55a3.4,3.4,0,0,0-.43-1.74,3,3,0,0,0-1.18-1.18,3.37,3.37,0,0,0-1.73-.44,3.53,3.53,0,0,0-1.84.48,3.41,3.41,0,0,0-1.23,1.27,3.58,3.58,0,0,0-.46,1.76V17a4.58,4.58,0,0,0,.45,2.1A3.2,3.2,0,0,0,66,20.45a3.86,3.86,0,0,0,2,.48,4.34,4.34,0,0,0,1.38-.21,2.93,2.93,0,0,0,1.08-.64,2.77,2.77,0,0,0,.68-1l4.2.27A5.78,5.78,0,0,1,74,22a6.59,6.59,0,0,1-2.54,1.75A9.6,9.6,0,0,1,67.89,24.32Zm21.29,5.82V21.38H89a5.93,5.93,0,0,1-.91,1.35,4.43,4.43,0,0,1-1.5,1.1,5.2,5.2,0,0,1-2.24.44,6.16,6.16,0,0,1-3.37-1,6.71,6.71,0,0,1-2.39-2.85,11,11,0,0,1-.87-4.62,10.76,10.76,0,0,1,.9-4.68,6.56,6.56,0,0,1,2.41-2.8,6.21,6.21,0,0,1,3.31-.94,5,5,0,0,1,2.29.47A4.54,4.54,0,0,1,88.17,9,6.08,6.08,0,0,1,89,10.38h.19V7.64H93.7v22.5Zm-3.35-9.49a2.92,2.92,0,0,0,1.86-.59,3.81,3.81,0,0,0,1.17-1.7,7.23,7.23,0,0,0,.41-2.54,7.24,7.24,0,0,0-.4-2.54,3.68,3.68,0,0,0-1.17-1.66A3,3,0,0,0,85.83,11a3,3,0,0,0-1.88.61,3.66,3.66,0,0,0-1.16,1.69,7,7,0,0,0-.4,2.49,7.24,7.24,0,0,0,.4,2.52A3.75,3.75,0,0,0,84,20.05,3,3,0,0,0,85.83,20.65Zm22-3.62V7.64h4.54V24H108V21h-.17A4.81,4.81,0,0,1,106,23.34a5.4,5.4,0,0,1-3.12.87,5.57,5.57,0,0,1-2.89-.74,5.2,5.2,0,0,1-2-2.12,7.43,7.43,0,0,1-.7-3.29V7.64h4.54v9.61a3.29,3.29,0,0,0,.77,2.29,2.67,2.67,0,0,0,2.06.84,3.21,3.21,0,0,0,1.53-.38,2.88,2.88,0,0,0,1.15-1.12A3.45,3.45,0,0,0,107.84,17Zm15.63,7.29a8.77,8.77,0,0,1-4.35-1,7,7,0,0,1-2.79-2.92,9.72,9.72,0,0,1-1-4.49,9.61,9.61,0,0,1,1-4.43,7.2,7.2,0,0,1,2.76-3,8,8,0,0,1,4.2-1.07,8.46,8.46,0,0,1,3,.53,6.58,6.58,0,0,1,2.45,1.54,7,7,0,0,1,1.64,2.6,10.33,10.33,0,0,1,.59,3.64V17H117.16V14.17h9.55a3.51,3.51,0,0,0-.43-1.74,3,3,0,0,0-1.18-1.18,3.41,3.41,0,0,0-1.74-.44,3.47,3.47,0,0,0-1.83.48,3.36,3.36,0,0,0-1.24,1.27,3.69,3.69,0,0,0-.46,1.76V17a4.58,4.58,0,0,0,.45,2.1,3.32,3.32,0,0,0,1.29,1.36,3.89,3.89,0,0,0,2,.48,4.36,4.36,0,0,0,1.39-.21,2.81,2.81,0,0,0,1.07-.64,2.65,2.65,0,0,0,.68-1l4.2.27A5.68,5.68,0,0,1,129.57,22,6.56,6.56,0,0,1,127,23.7,9.6,9.6,0,0,1,123.47,24.32ZM133.94,24V7.64h4.54V24Zm2.28-18.47a2.51,2.51,0,0,1-1.74-.67,2.21,2.21,0,0,1-.71-1.63,2.13,2.13,0,0,1,.71-1.61,2.43,2.43,0,0,1,1.74-.68,2.39,2.39,0,0,1,1.73.68,2.11,2.11,0,0,1,.72,1.61A2.18,2.18,0,0,1,138,4.86,2.47,2.47,0,0,1,136.22,5.53ZM142.11,24V7.64h4.4v2.85h.17a4.23,4.23,0,0,1,1.51-2.3,3.91,3.91,0,0,1,2.43-.79c.22,0,.47,0,.73,0a5.44,5.44,0,0,1,.69.12v4a5.08,5.08,0,0,0-.88-.17,8,8,0,0,0-1-.08,3.62,3.62,0,0,0-1.79.44A3.15,3.15,0,0,0,147.1,13a3.45,3.45,0,0,0-.45,1.77V24Zm18.91.32a8.3,8.3,0,0,1-4.29-1.06,7.16,7.16,0,0,1-2.78-3,9.44,9.44,0,0,1-1-4.42,9.43,9.43,0,0,1,1-4.43,7.1,7.1,0,0,1,2.78-3,9.12,9.12,0,0,1,8.57,0,7.14,7.14,0,0,1,2.8,3,9.55,9.55,0,0,1,1,4.43,9.56,9.56,0,0,1-1,4.42,7.2,7.2,0,0,1-2.8,3A8.24,8.24,0,0,1,161,24.32Zm0-3.52a2.83,2.83,0,0,0,1.89-.64,4,4,0,0,0,1.14-1.76,7.76,7.76,0,0,0,.39-2.55,7.76,7.76,0,0,0-.39-2.55,4,4,0,0,0-1.14-1.76,2.78,2.78,0,0,0-1.89-.65,2.82,2.82,0,0,0-1.91.65A4,4,0,0,0,158,13.3a8,8,0,0,0-.38,2.55A8,8,0,0,0,158,18.4a4,4,0,0,0,1.17,1.76A2.86,2.86,0,0,0,161,20.8Z" transform="translate(-1.51 -0.94)"/></svg>
